X:960
T:The Maid in the Meadow
R:reel
D:Kevin Crawford: D flute album
Z:id:hn-reel-608
M:C|
K:DMix
d2ed cAGB|Add^c dfag|fded cAGE|E2cE EDD2:|
|fdd^c d2 (3Bcd| eaag efge|fdd^c d2 (3Bcd|eaag edde|
|fdd^c d2 (3Bcd| eaag efge|f3g eA (3Bcd|eaag efge|>|
